**kern	**kern
*staff2	*staff1
*clefG2	*clefG2
*k[b-]	*k[b-]
*M3/4	*M3/4
=-	=-
4r	4ccc
=455	=455
2.r	(8bbL
.	8cccJ
.	8dddL)
.	8ccc'J
.	8bb-'L
.	8aa'J
=456	=456
4r	8gg'L
.	8ff'J
4r	8ee'L
.	8dd'J
4b-	(8ccL
.	8eeJ)
=457	=457
*	*^
(4a	4ff	2.cc
4g 4b-	(8ffL)	.
.	8eeJ	.
4f) 4a	8ffL	.
.	8aaJ)	.
=458	=458	=458
2b-	(4ff#	2dd
.	4gg)	.
*clefF4	*	*
4d	4r	4r
*	*v	*v
=459	=459
(8c#L	2.r
8dJ	.
8e-L)	.
8d'J	.
8c'L	.
8B-'J	.
=460	=460
8A'L	2r
8G'J	.
8F#'L	.
8E-'J	.
*	*^
8D'L	(8ddL	4dd
8C'J	8ff#J)	.
=461	=461	=461
4BB-	4gg	4dd
*clefG2	*	*
4b- 4dd	(8ggL)	4r
.	8ff#J	.
4g 4b-	8ggL	4r
.	8bb-J)	.
*	*v	*v
=462	=462
2en 2g	(4ddd
.	4ccc
4f 4cc	8bb-L
.	8aaJ)
=463	=463
4B- 4d	8gg'L
.	(32aaLL
.	32gg
.	32ff#
.	32ggJJJ
4r	4bb-)
4c 4b-	4ee
=464	=464
4d 4b	4ffn'
4r	8r
.	(8ff#
4r	8aaL
.	8ggJ)
*clefF4	*
=465	=465
4E 4c	4b-'
4r	4r
=	=
*-	*-
